!!!!SEGMENT: pl-wnifc--6432-n--006_nowakowski-jozef--anglez-no-6.krn
!!!cenid: 18xx:3929
!!!COM: Nowakowski, Józef
!!!COM-rismID: pe175316
!!!CDT: 1880/09/16-1865/08/27
!!!CNT: Polish
!!!OTL: Anglez No. 6
!!!PDT: 1825
!!!AGN:
!!!SMS-siglum: PL-Wnifc
!!!SMS-shelfmark: 6432/n
!!!SMS-shelfwork: 006 W
!!!SMS-variant:
!!!SMS-altvar:
!!!NIFC-rismSourceID: 1001134740
!!!NIFC-islandoraID: nifc:212700
!!!URL-pdf-islandora: https://repozytorium.nifc.pl/islandora/object/nifc%3A212700/datastream/PDF/view
!!!URL-scan: https://polish.musicsources.pl/pl/lokalizacje/galeria/druki-muzyczne/16851 @EN{Scan on Polish Music Sources Website} @PL{Skany w portalu Dziedzictwo Muzyki Polskiej w otwartym dostępie}
!!!ONB-nifc: UWAGA: w źródle 5 Mazurów (001-005), 4 Anglezy (006-009), 2 Walce (010-011) i Fantaisie Valse (012).
!!!AIN: 1 piano
!!!key: E-
**kern	**kern
*part1	*part1
*staff2	*staff1
*>[A,A,B,B]	*>[A,A,B,B]
*>A	*>A
*I"Piano-forté.	*I"Piano-forté.
*I'	*I'
*Ipiano	*Ipiano
*ICklav	*ICklav
*clefF4	*clefG2
*k[b-e-a-]	*k[b-e-a-]
*E-:	*E-:
*M2/4	*M2/4
=1	=1
4E-\	8.g\L
.	16b-\K
4e- 4B- 4G\	8.ee-\
.	16b-\Jk
=2	=2
4E-\	8gg\L
.	8b-\
4e- 4B- 4G\	8bb-\
.	8b-\J
=3	=3
4E-\	8ccc\L
.	8b-\
4e- 4B- 4G\	8bb-\
.	8b-\J
=4	=4
4E-\	8aan\L
.	8b-\
4e- 4G 4E-\	8bb-\
.	8b-\J
=5	=5
4BB-/	8aa-X\L
.	8b-\
4d 4B- 4A- 4F\	8bb-\
.	8b-\J
=6	=6
4BB-/	8aa-\L
.	8b-\
4d 4B- 4A- 4F\	8bb-\
.	8b-\J
=7	=7
4BB-/	8aa-\L
.	8b-\
4d 4B- 4A- 4F\	8bb-\
.	8b-\J
=8	=8
4BB-/	8aa-\L
.	8b-\
4d 4B- 4A- 4F\	8bb-\
.	8b-\J
=9:|!|:	=9:|!|:
*>B	*>B
4E- 4EE-/	8ee-\L
.	8gg\
4e- 4B- 4G\	8bb-\
.	8eee-\J
=10	=10
.	8qgg/
2e- 2B- 2G\	(4.ggg\
.	8fff\)
=11	=11
4AA-/	8eee-\L
.	8ddd\
4f 4c 4A-\	8ccc\
.	8bb-\J
=12	=12
4f 4c 4A-\	8aa-\L
.	8gg\
4f 4c 4A-\	8ff\
.	8ee-\J
=13	=13
4BB-/	4dd\
4B- 4A- 4F\	8ff\L
.	8aa-\J
=14	=14
2B- 2A- 2F\	4ccc\
.	8bb-\L
.	8aa-\J
=15	=15
4B- 4G 4E-\	8gg\L
.	8bb-\
4B- 4F 4BB-\	8aa-\
.	8ff\J
=16	=16
4B- 4G 4E-\	4ee-\
4r	4r
==:|!	==:|!
*-	*-
!!!system-decoration: {(*)}
!!!ENC: Berenika Jozajtis
!!!END: 2022-07-27
!!!ENC: Andrzej Kubiczek
!!!END: 2022-08-24
!!!YEC: Copyright 2022 Narodowy Instytut Fryderyka Chopina (https://polishscores.org)
!!!YEM: Licence CC BY 4.0 (https://creativecommons.org/licenses/by/4.0)
